exports/extreme-poverty-fragile-states_v1_850x600.svg

<svg xmlns="http://www.w3.org/2000/svg" version="1.1" style="background-color:#fff;-webkit-font-smoothing:antialiased" width="850" height="600" font-family="'Helvetica Neue',Helvetica,Arial,sans-serif" font-size="18" text-rendering="optimizeLegibility"><g class="ChartTab"><g class="HeaderView"><g opacity=".8" transform="matrix(.27 0 0 .27 778 15)"><a xmlns:xlink="http://www.w3.org/1999/xlink" xlink:href="https://ourworldindata.org" target="_blank"><g><path fill="#1B2543" d="M0 0h211.2v130.1H0z"/><path fill="#E63912" d="M0 112.2h211.2v17.9H0z"/><g><path fill="none" d="M1.2 12.3h210.2v99.2H1.2z"/><path fill="#FFF" d="M37.8 32.2c0 12.7-7.7 19.4-17.1 19.4-9.7 0-16.6-7.5-16.6-18.7 0-11.7 7.3-19.3 17.1-19.3 10.1.1 16.6 7.7 16.6 18.6zm-28.6.6c0 7.9 4.3 14.9 11.8 14.9 7.5 0 11.8-6.9 11.8-15.3 0-7.3-3.8-14.9-11.8-14.9-7.9 0-11.8 7.3-11.8 15.3zM62.7 43.8c0 2.7.1 5.1.2 7.2h-4.3l-.3-4.3h-.1c-1.3 2.1-4 4.9-8.8 4.9-4.2 0-9.1-2.3-9.1-11.6V24.6h4.8v14.6c0 5 1.5 8.4 5.9 8.4 3.2 0 5.5-2.2 6.3-4.4.3-.7.4-1.6.4-2.5V24.6h4.8v19.2zM67.3 32.8c0-3.1-.1-5.8-.2-8.2h4.2l.2 5.2h.2c1.2-3.5 4.1-5.8 7.3-5.8.5 0 .9.1 1.4.2v4.5c-.5-.1-1-.2-1.6-.2-3.4 0-5.8 2.6-6.5 6.2-.1.7-.2 1.4-.2 2.2V51h-4.8V32.8zM95.4 51L86 14.2h5l4.4 18.6c1.1 4.6 2.1 9.2 2.7 12.7h.1c.6-3.7 1.8-8 3-12.8l4.9-18.5h5l4.5 18.7c1 4.4 2 8.7 2.6 12.6h.1c.8-4 1.8-8.1 3-12.7l4.9-18.5h4.9L120.6 51h-5L111 31.9c-1.1-4.7-1.9-8.3-2.4-12h-.1c-.7 3.7-1.5 7.3-2.8 12L100.4 51h-5zM154.9 37.6c0 9.8-6.8 14-13.2 14-7.2 0-12.7-5.2-12.7-13.6 0-8.8 5.8-14 13.1-14 7.7 0 12.8 5.5 12.8 13.6zm-21 .3c0 5.8 3.3 10.1 8 10.1 4.6 0 8-4.3 8-10.3 0-4.5-2.2-10.1-7.9-10.1s-8.1 5.2-8.1 10.3zM158.2 32.8c0-3.1-.1-5.8-.2-8.2h4.2l.2 5.2h.2c1.2-3.5 4.1-5.8 7.3-5.8.5 0 .9.1 1.4.2v4.5c-.5-.1-1-.2-1.6-.2-3.4 0-5.8 2.6-6.5 6.2-.1.7-.2 1.4-.2 2.2V51h-4.8V32.8zM173.5 12.3h4.8V51h-4.8V12.3zM206.5 12.3v31.9c0 2.3.1 5 .2 6.8h-4.3l-.2-4.6h-.2c-1.5 2.9-4.7 5.2-9 5.2-6.4 0-11.3-5.4-11.3-13.4-.1-8.8 5.4-14.2 11.9-14.2 4 0 6.8 1.9 8 4h.1V12.3h4.8zm-4.8 23.1c0-.6-.1-1.4-.2-2a7 7 0 00-6.9-5.6c-5 0-7.9 4.4-7.9 10.2 0 5.3 2.6 9.8 7.8 9.8 3.2 0 6.2-2.1 7.1-5.7.2-.7.2-1.3.2-2.1v-4.6zM42.8 64c.1 1.6-1.1 2.9-3.1 2.9-1.7 0-2.9-1.3-2.9-2.9 0-1.7 1.3-3 3-3 1.9 0 3 1.3 3 3zm-5.4 33.8V71.4h4.8v26.4h-4.8zM47.5 78.6c0-2.7-.1-5-.2-7.1h4.3l.3 4.4h.1c1.3-2.5 4.4-5 8.8-5 3.7 0 9.4 2.2 9.4 11.2v15.8h-4.8V82.6c0-4.3-1.6-7.8-6.1-7.8-3.2 0-5.6 2.2-6.5 4.9-.2.6-.3 1.4-.3 2.2v15.9h-4.8V78.6zM84 61.6c2.9-.4 6.3-.8 10.1-.8 6.8 0 11.7 1.6 14.9 4.6 3.3 3 5.2 7.3 5.2 13.2 0 6-1.9 10.9-5.3 14.3-3.4 3.4-9.1 5.3-16.3 5.3-3.4 0-6.2-.2-8.6-.4V61.6zm4.8 32.5c1.2.2 3 .3 4.8.3 10.2 0 15.7-5.7 15.7-15.6.1-8.7-4.9-14.2-14.9-14.2-2.5 0-4.3.2-5.6.5v29zM132.1 97.8l-.4-3.3h-.2a9.79 9.79 0 01-8.1 3.9c-5.4 0-8.1-3.8-8.1-7.6 0-6.4 5.7-9.9 15.9-9.8v-.5c0-2.2-.6-6.1-6-6.1-2.5 0-5 .8-6.9 2l-1.1-3.2c2.2-1.4 5.4-2.3 8.7-2.3 8.1 0 10.1 5.5 10.1 10.8v9.9c0 2.3.1 4.5.4 6.3h-4.3zm-.7-13.4c-5.3-.1-11.2.8-11.2 5.9 0 3.1 2.1 4.6 4.5 4.6 3.4 0 5.6-2.2 6.4-4.4.2-.5.3-1 .3-1.5v-4.6zM146.6 63.9v7.6h6.9v3.7h-6.9v14.2c0 3.3.9 5.1 3.6 5.1 1.3 0 2.2-.2 2.8-.3l.2 3.6c-.9.4-2.4.7-4.3.7-2.2 0-4-.7-5.2-2-1.4-1.4-1.9-3.8-1.9-6.9V75.1h-4.1v-3.7h4.1v-6.3l4.8-1.2zM171.4 97.8l-.4-3.3h-.2a9.79 9.79 0 01-8.1 3.9c-5.4 0-8.1-3.8-8.1-7.6 0-6.4 5.7-9.9 15.9-9.8v-.5c0-2.2-.6-6.1-6-6.1-2.5 0-5 .8-6.9 2l-1.1-3.2c2.2-1.4 5.4-2.3 8.7-2.3 8.1 0 10.1 5.5 10.1 10.8v9.9c0 2.3.1 4.5.4 6.3h-4.3zm-.7-13.4c-5.3-.1-11.2.8-11.2 5.9 0 3.1 2.1 4.6 4.5 4.6 3.4 0 5.6-2.2 6.4-4.4.2-.5.3-1 .3-1.5v-4.6z"/></g></g></a></g><a href="https://ourworldindata.org/grapher/extreme-poverty-fragile-states" target="_blank"><text font-size="25.2" x="15" y="35.2" fill="#555"><tspan x="15" y="35.16">Projected number of people in extreme poverty in fragile states</tspan></text></a><text font-size="14.4" x="15" y="53.7" fill="#666"><tspan x="15" y="53.72">Number of people projected to be living in extreme poverty through to 2030. Extreme poverty is defined by the</tspan><tspan x="15" y="69.56">international poverty line of $1.90 per day (2011, PPP-adjusted). These projections are based on a business-as-usual</tspan><tspan x="15" y="85.4">scenario of recent socioeconomic trends and medium future population scenarios. Categories of fragility are based on</tspan><tspan x="15" y="101.24">the OECD&apos;s 2018 States of Fragility framework.</tspan></text></g><g class="StackedArea"><defs><clipPath id="a"><path d="M97.6 0h820v866.8h-820z"/></clipPath></defs><g class="AxisBoxView"><g class="HorizontalAxis" fill="#666" text-anchor="middle" font-size="16.2"><text x="97.6" y="556.5">2015</text><text x="218.7" y="556.5">2018</text><text x="299.4" y="556.5">2020</text><text x="380.2" y="556.5">2022</text><text x="460.9" y="556.5">2024</text><text x="541.6" y="556.5">2026</text><text x="622.3" y="556.5">2028</text><text x="703.1" y="556.5">2030</text></g><g class="VerticalAxis" fill="#666" dominant-baseline="middle" text-anchor="end" font-size="16.2"><text x="92.6" y="535.3">0</text><text x="92.6" y="478.7">100 million</text><text x="92.6" y="422.2">200 million</text><text x="92.6" y="365.6">300 million</text><text x="92.6" y="309.1">400 million</text><text x="92.6" y="252.5">500 million</text><text x="92.6" y="196">600 million</text><text x="92.6" y="139.4">700 million</text></g><g class="AxisGridLines"><path stroke="#ccc" d="M97.6 535.3h605.47"/><path stroke="#ddd" stroke-dasharray="3,2" d="M97.6 478.7h605.47M97.6 422.2h605.47M97.6 365.6h605.47M97.6 309.1h605.47M97.6 252.5h605.47M97.6 196h605.47M97.6 139.4h605.47"/></g></g><g clip-path="url(#a)"><g class="HeightedLegend clickable"><g class="legendMark"><text font-size="13.5" x="708.1" y="300.7" fill="#818282"><tspan x="708.07" y="300.65">Non-fragile</tspan></text></g><g class="legendMark"><text font-size="13.5" x="708.1" y="386.2" fill="#3360a9"><tspan x="708.07" y="386.15">Fragile</tspan></text></g><g class="legendMark"><text font-size="13.5" x="708.1" y="498.6" fill="#ca2628"><tspan x="708.07" y="498.55">Extreme fragility</tspan></text></g></g><g class="Areas"><path d="M97.6 447.9l40.4-2.3 40.3-.5 40.4.6 40.4.2 40.3.3 40.4.3 40.4.3 40.3 1.1 40.4 1 40.3.9 40.4.9 40.4.8 40.3.8 40.4.7 40.4.6-.03 81.7H97.6" fill="#ca2628" fill-opacity=".7" class="Extreme-fragility_0-area"/><path d="M97.6 279.7l40.4-4 40.3.3 40.4 1.9 40.4 1.5 40.3 1.4 40.4.9 40.4 1.7 40.3 3.9 40.4 3.6 40.3 3.3 40.4 3.7 40.4 3.4 40.3 3.2 40.4 3.1 40.4 2.9v143.1l-40.4-.6-40.4-.7-40.3-.8-40.4-.8-40.4-.9-40.3-.9-40.4-1-40.3-1.1-40.4-.3-40.4-.3-40.3-.3-40.4-.2-40.4-.6-40.3.5-40.4 2.3" fill="#3360a9" fill-opacity=".7" class="Fragile_0-area"/><path d="M97.6 123.1l40.4 19.2 40.3 22.1 40.4 22.1 40.4 18.3 40.3 14.8 40.4 11 40.4 9.1 40.3 8.2 40.4 6.4 40.3 5.6 40.4 5.3 40.4 4.9 40.3 4.6 40.4 4.2 40.4 3.9v27.7l-40.4-2.9-40.4-3.1-40.3-3.2-40.4-3.4-40.4-3.7-40.3-3.3-40.4-3.6-40.3-3.9-40.4-1.7-40.4-.9-40.3-1.4-40.4-1.5-40.4-1.9-40.3-.3-40.4 4" fill="#818282" fill-opacity=".7" class="Non__002dfragile_0-area"/><path stroke-linecap="round" d="M97.6 447.9l40.4-2.3 40.3-.5 40.4.6 40.4.2 40.3.3 40.4.3 40.4.3 40.3 1.1 40.4 1 40.3.9 40.4.9 40.4.8 40.3.8 40.4.7 40.4.6" stroke="#A92021" stroke-opacity=".7" stroke-width=".5" fill="none" class="Extreme-fragility_0-border"/><path stroke-linecap="round" d="M97.6 279.7l40.4-4 40.3.3 40.4 1.9 40.4 1.5 40.3 1.4 40.4.9 40.4 1.7 40.3 3.9 40.4 3.6 40.3 3.3 40.4 3.7 40.4 3.4 40.3 3.2 40.4 3.1 40.4 2.9" stroke="#2B508D" stroke-opacity=".7" stroke-width=".5" fill="none" class="Fragile_0-border"/><path stroke-linecap="round" d="M97.6 123.1l40.4 19.2 40.3 22.1 40.4 22.1 40.4 18.3 40.3 14.8 40.4 11 40.4 9.1 40.3 8.2 40.4 6.4 40.3 5.6 40.4 5.3 40.4 4.9 40.3 4.6 40.4 4.2 40.4 3.9" stroke="#6C6D6D" stroke-opacity=".7" stroke-width=".5" fill="none" class="Non__002dfragile_0-border"/></g></g></g><g class="SourcesFooter" fill="#777"><g class="clickable" fill="#777"><text font-size="12.6" x="15" y="581.6"><tspan x="15" y="581.58">Source: Crespo-Cuaresma et al. (2018); OECD (2018), States of Fragility</tspan></text></g><text font-size="12.6" x="775.4" y="581.6"><tspan x="775.4" y="581.58"><a class="cclogo" href="http://creativecommons.org/licenses/by-sa/4.0/deed.en_US" target="_blank" fill="#777">CC BY-SA</a></tspan></text></g></g></svg>

<svg xmlns="http://www.w3.org/2000/svg" version="1.1" style="font-family: 'Helvetica Neue', Helvetica, Arial, sans-serif; font-size: 18px; background-color: white; text-rendering: optimizeLegibility; -webkit-font-smoothing: antialiased;" width="850" height="600"><g class="ChartTab"><g class="HeaderView"><g opacity="0.8" transform="translate(778, 15) scale(0.27)"><a xmlns:xlink="http://www.w3.org/1999/xlink" xlink:href="https://ourworldindata.org" target="_blank"><g><rect x="0" y="0" fill="#1B2543" width="211.2" height="130.1"/><rect x="0" y="112.2" fill="#E63912" width="211.2" height="17.9"/><g><rect x="1.2" y="12.3" fill="none" width="210.2" height="99.2"/><path fill="#FFFFFF" d="M37.8,32.2c0,12.7-7.7,19.4-17.1,19.4c-9.7,0-16.6-7.5-16.6-18.7c0-11.7,7.3-19.3,17.1-19.3 C31.3,13.7,37.8,21.3,37.8,32.2z M9.2,32.8c0,7.9,4.3,14.9,11.8,14.9c7.5,0,11.8-6.9,11.8-15.3c0-7.3-3.8-14.9-11.8-14.9 C13.1,17.5,9.2,24.8,9.2,32.8z"/><path fill="#FFFFFF" d="M62.7,43.8c0,2.7,0.1,5.1,0.2,7.2h-4.3l-0.3-4.3h-0.1c-1.3,2.1-4,4.9-8.8,4.9c-4.2,0-9.1-2.3-9.1-11.6 V24.6h4.8v14.6c0,5,1.5,8.4,5.9,8.4c3.2,0,5.5-2.2,6.3-4.4c0.3-0.7,0.4-1.6,0.4-2.5V24.6h4.8V43.8z"/><path fill="#FFFFFF" d="M67.3,32.8c0-3.1-0.1-5.8-0.2-8.2h4.2l0.2,5.2h0.2c1.2-3.5,4.1-5.8,7.3-5.8c0.5,0,0.9,0.1,1.4,0.2v4.5 c-0.5-0.1-1-0.2-1.6-0.2c-3.4,0-5.8,2.6-6.5,6.2c-0.1,0.7-0.2,1.4-0.2,2.2V51h-4.8V32.8z"/><path fill="#FFFFFF" d="M95.4,51l-9.4-36.8h5l4.4,18.6c1.1,4.6,2.1,9.2,2.7,12.7h0.1c0.6-3.7,1.8-8,3-12.8l4.9-18.5h5l4.5,18.7 c1,4.4,2,8.7,2.6,12.6h0.1c0.8-4,1.8-8.1,3-12.7l4.9-18.5h4.9L120.6,51h-5L111,31.9c-1.1-4.7-1.9-8.3-2.4-12h-0.1 c-0.7,3.7-1.5,7.3-2.8,12L100.4,51H95.4z"/><path fill="#FFFFFF" d="M154.9,37.6c0,9.8-6.8,14-13.2,14c-7.2,0-12.7-5.2-12.7-13.6c0-8.8,5.8-14,13.1-14 C149.8,24,154.9,29.5,154.9,37.6z M133.9,37.9c0,5.8,3.3,10.1,8,10.1c4.6,0,8-4.3,8-10.3c0-4.5-2.2-10.1-7.9-10.1 C136.3,27.6,133.9,32.8,133.9,37.9z"/><path fill="#FFFFFF" d="M158.2,32.8c0-3.1-0.1-5.8-0.2-8.2h4.2l0.2,5.2h0.2c1.2-3.5,4.1-5.8,7.3-5.8c0.5,0,0.9,0.1,1.4,0.2v4.5 c-0.5-0.1-1-0.2-1.6-0.2c-3.4,0-5.8,2.6-6.5,6.2c-0.1,0.7-0.2,1.4-0.2,2.2V51h-4.8V32.8z"/><path fill="#FFFFFF" d="M173.5,12.3h4.8V51h-4.8V12.3z"/><path fill="#FFFFFF" d="M206.5,12.3v31.9c0,2.3,0.1,5,0.2,6.8h-4.3l-0.2-4.6H202c-1.5,2.9-4.7,5.2-9,5.2 c-6.4,0-11.3-5.4-11.3-13.4c-0.1-8.8,5.4-14.2,11.9-14.2c4,0,6.8,1.9,8,4h0.1V12.3H206.5z M201.7,35.4c0-0.6-0.1-1.4-0.2-2 c-0.7-3.1-3.3-5.6-6.9-5.6c-5,0-7.9,4.4-7.9,10.2c0,5.3,2.6,9.8,7.8,9.8c3.2,0,6.2-2.1,7.1-5.7c0.2-0.7,0.2-1.3,0.2-2.1V35.4z"/><path fill="#FFFFFF" d="M42.8,64c0.1,1.6-1.1,2.9-3.1,2.9c-1.7,0-2.9-1.3-2.9-2.9c0-1.7,1.3-3,3-3C41.7,61,42.8,62.3,42.8,64z M37.4,97.8V71.4h4.8v26.4H37.4z"/><path fill="#FFFFFF" d="M47.5,78.6c0-2.7-0.1-5-0.2-7.1h4.3l0.3,4.4h0.1c1.3-2.5,4.4-5,8.8-5c3.7,0,9.4,2.2,9.4,11.2v15.8h-4.8 V82.6c0-4.3-1.6-7.8-6.1-7.8c-3.2,0-5.6,2.2-6.5,4.9c-0.2,0.6-0.3,1.4-0.3,2.2v15.9h-4.8V78.6z"/><path fill="#FFFFFF" d="M84,61.6c2.9-0.4,6.3-0.8,10.1-0.8c6.8,0,11.7,1.6,14.9,4.6c3.3,3,5.2,7.3,5.2,13.2c0,6-1.9,10.9-5.3,14.3 c-3.4,3.4-9.1,5.3-16.3,5.3c-3.4,0-6.2-0.2-8.6-0.4V61.6z M88.8,94.1c1.2,0.2,3,0.3,4.8,0.3c10.2,0,15.7-5.7,15.7-15.6 c0.1-8.7-4.9-14.2-14.9-14.2c-2.5,0-4.3,0.2-5.6,0.5V94.1z"/><path fill="#FFFFFF" d="M132.1,97.8l-0.4-3.3h-0.2c-1.5,2.1-4.3,3.9-8.1,3.9c-5.4,0-8.1-3.8-8.1-7.6c0-6.4,5.7-9.9,15.9-9.8v-0.5 c0-2.2-0.6-6.1-6-6.1c-2.5,0-5,0.8-6.9,2l-1.1-3.2c2.2-1.4,5.4-2.3,8.7-2.3c8.1,0,10.1,5.5,10.1,10.8v9.9c0,2.3,0.1,4.5,0.4,6.3 H132.1z M131.4,84.4c-5.3-0.1-11.2,0.8-11.2,5.9c0,3.1,2.1,4.6,4.5,4.6c3.4,0,5.6-2.2,6.4-4.4c0.2-0.5,0.3-1,0.3-1.5V84.4z"/><path fill="#FFFFFF" d="M146.6,63.9v7.6h6.9v3.7h-6.9v14.2c0,3.3,0.9,5.1,3.6,5.1c1.3,0,2.2-0.2,2.8-0.3l0.2,3.6 c-0.9,0.4-2.4,0.7-4.3,0.7c-2.2,0-4-0.7-5.2-2c-1.4-1.4-1.9-3.8-1.9-6.9V75.1h-4.1v-3.7h4.1v-6.3L146.6,63.9z"/><path fill="#FFFFFF" d="M171.4,97.8l-0.4-3.3h-0.2c-1.5,2.1-4.3,3.9-8.1,3.9c-5.4,0-8.1-3.8-8.1-7.6c0-6.4,5.7-9.9,15.9-9.8v-0.5 c0-2.2-0.6-6.1-6-6.1c-2.5,0-5,0.8-6.9,2l-1.1-3.2c2.2-1.4,5.4-2.3,8.7-2.3c8.1,0,10.1,5.5,10.1,10.8v9.9c0,2.3,0.1,4.5,0.4,6.3 H171.4z M170.7,84.4c-5.3-0.1-11.2,0.8-11.2,5.9c0,3.1,2.1,4.6,4.5,4.6c3.4,0,5.6-2.2,6.4-4.4c0.2-0.5,0.3-1,0.3-1.5V84.4z"/></g></g></a></g><a href="https://ourworldindata.org/grapher/extreme-poverty-fragile-states" target="_blank"><text font-size="25.20" x="15.0" y="35.2" fill="#555"><tspan x="15" y="35.160000000000004">Projected number of people in extreme poverty in fragile states</tspan></text></a><text font-size="14.40" x="15.0" y="53.7" fill="#666"><tspan x="15" y="53.72">Number of people projected to be living in extreme poverty through to 2030. Extreme poverty is defined by the</tspan><tspan x="15" y="69.56">international poverty line of $1.90 per day (2011, PPP-adjusted). These projections are based on a business-as-usual</tspan><tspan x="15" y="85.4">scenario of recent socioeconomic trends and medium future population scenarios. Categories of fragility are based on</tspan><tspan x="15" y="101.24000000000001">the OECD's 2018 States of Fragility framework.</tspan></text></g><g class="StackedArea"><defs><clipPath id="boundsClip-1"><rect x="97.598" y="0" width="820" height="866.8"></rect></clipPath></defs><g class="AxisBoxView"><g class="HorizontalAxis"><text x="97.6" y="556.5" fill="#666" text-anchor="middle" font-size="16.2">2015</text><text x="218.7" y="556.5" fill="#666" text-anchor="middle" font-size="16.2">2018</text><text x="299.4" y="556.5" fill="#666" text-anchor="middle" font-size="16.2">2020</text><text x="380.2" y="556.5" fill="#666" text-anchor="middle" font-size="16.2">2022</text><text x="460.9" y="556.5" fill="#666" text-anchor="middle" font-size="16.2">2024</text><text x="541.6" y="556.5" fill="#666" text-anchor="middle" font-size="16.2">2026</text><text x="622.3" y="556.5" fill="#666" text-anchor="middle" font-size="16.2">2028</text><text x="703.1" y="556.5" fill="#666" text-anchor="middle" font-size="16.2">2030</text></g><g class="VerticalAxis"><text x="92.60" y="535.3" fill="#666" dominant-baseline="middle" text-anchor="end" font-size="16.2">0</text><text x="92.60" y="478.7" fill="#666" dominant-baseline="middle" text-anchor="end" font-size="16.2">100 million</text><text x="92.60" y="422.2" fill="#666" dominant-baseline="middle" text-anchor="end" font-size="16.2">200 million</text><text x="92.60" y="365.6" fill="#666" dominant-baseline="middle" text-anchor="end" font-size="16.2">300 million</text><text x="92.60" y="309.1" fill="#666" dominant-baseline="middle" text-anchor="end" font-size="16.2">400 million</text><text x="92.60" y="252.5" fill="#666" dominant-baseline="middle" text-anchor="end" font-size="16.2">500 million</text><text x="92.60" y="196" fill="#666" dominant-baseline="middle" text-anchor="end" font-size="16.2">600 million</text><text x="92.60" y="139.4" fill="#666" dominant-baseline="middle" text-anchor="end" font-size="16.2">700 million</text></g><g class="AxisGridLines"><line x1="97.60" y1="535.3" x2="703.07" y2="535.3" stroke="#ccc"></line><line x1="97.60" y1="478.7" x2="703.07" y2="478.7" stroke="#ddd" stroke-dasharray="3,2"></line><line x1="97.60" y1="422.2" x2="703.07" y2="422.2" stroke="#ddd" stroke-dasharray="3,2"></line><line x1="97.60" y1="365.6" x2="703.07" y2="365.6" stroke="#ddd" stroke-dasharray="3,2"></line><line x1="97.60" y1="309.1" x2="703.07" y2="309.1" stroke="#ddd" stroke-dasharray="3,2"></line><line x1="97.60" y1="252.5" x2="703.07" y2="252.5" stroke="#ddd" stroke-dasharray="3,2"></line><line x1="97.60" y1="196" x2="703.07" y2="196" stroke="#ddd" stroke-dasharray="3,2"></line><line x1="97.60" y1="139.4" x2="703.07" y2="139.4" stroke="#ddd" stroke-dasharray="3,2"></line></g></g><g clip-path="url(#boundsClip-1)"><g class="HeightedLegend clickable"><g class="legendMark"><rect x="703.0699999999999" y="289.85" width="101.15" height="13.5" fill="#fff" opacity="0"></rect><text font-size="13.50" x="708.1" y="300.7" fill="#818282"><tspan x="708.0699999999999" y="300.65000000000003">Non-fragile</tspan></text></g><g class="legendMark"><rect x="703.0699999999999" y="375.35" width="76.31" height="13.5" fill="#fff" opacity="0"></rect><text font-size="13.50" x="708.1" y="386.2" fill="#3360a9"><tspan x="708.0699999999999" y="386.15000000000003">Fragile</tspan></text></g><g class="legendMark"><rect x="703.0699999999999" y="487.75" width="131.93" height="13.5" fill="#fff" opacity="0"></rect><text font-size="13.50" x="708.1" y="498.6" fill="#ca2628"><tspan x="708.0699999999999" y="498.55">Extreme fragility</tspan></text></g></g><g class="Areas"><rect x="97.598" y="123.1" width="605.472" height="412.19999999999993" opacity="0" fill="rgba(255,255,255,0)"></rect><path stroke-linecap="round" d="M97.6 447.9L138 445.6L178.3 445.1L218.7 445.7L259.1 445.9L299.4 446.2L339.8 446.5L380.2 446.8L420.5 447.9L460.9 448.9L501.2 449.8L541.6 450.7L582 451.5L622.3 452.3L662.7 453L703.1 453.6L703.0699999999999 535.3L97.598 535.3" fill="#ca2628" fill-opacity="0.7" class="Extreme-fragility_0-area"></path><path stroke-linecap="round" d="M97.6 279.7L138 275.7L178.3 276L218.7 277.9L259.1 279.4L299.4 280.8L339.8 281.7L380.2 283.4L420.5 287.3L460.9 290.9L501.2 294.2L541.6 297.9L582 301.3L622.3 304.5L662.7 307.6L703.1 310.5L703.1 453.6L662.7 453L622.3 452.3L582 451.5L541.6 450.7L501.2 449.8L460.9 448.9L420.5 447.9L380.2 446.8L339.8 446.5L299.4 446.2L259.1 445.9L218.7 445.7L178.3 445.1L138 445.6L97.6 447.9" fill="#3360a9" fill-opacity="0.7" class="Fragile_0-area"></path><path stroke-linecap="round" d="M97.6 123.1L138 142.3L178.3 164.4L218.7 186.5L259.1 204.8L299.4 219.6L339.8 230.6L380.2 239.7L420.5 247.9L460.9 254.3L501.2 259.9L541.6 265.2L582 270.1L622.3 274.7L662.7 278.9L703.1 282.8L703.1 310.5L662.7 307.6L622.3 304.5L582 301.3L541.6 297.9L501.2 294.2L460.9 290.9L420.5 287.3L380.2 283.4L339.8 281.7L299.4 280.8L259.1 279.4L218.7 277.9L178.3 276L138 275.7L97.6 279.7" fill="#818282" fill-opacity="0.7" class="Non__002dfragile_0-area"></path><path stroke-linecap="round" d="M97.6 447.9L138 445.6L178.3 445.1L218.7 445.7L259.1 445.9L299.4 446.2L339.8 446.5L380.2 446.8L420.5 447.9L460.9 448.9L501.2 449.8L541.6 450.7L582 451.5L622.3 452.3L662.7 453L703.1 453.6" stroke="rgb(169, 32, 33)" stroke-opacity="0.7" stroke-width="0.5" fill="none" class="Extreme-fragility_0-border"></path><path stroke-linecap="round" d="M97.6 279.7L138 275.7L178.3 276L218.7 277.9L259.1 279.4L299.4 280.8L339.8 281.7L380.2 283.4L420.5 287.3L460.9 290.9L501.2 294.2L541.6 297.9L582 301.3L622.3 304.5L662.7 307.6L703.1 310.5" stroke="rgb(43, 80, 141)" stroke-opacity="0.7" stroke-width="0.5" fill="none" class="Fragile_0-border"></path><path stroke-linecap="round" d="M97.6 123.1L138 142.3L178.3 164.4L218.7 186.5L259.1 204.8L299.4 219.6L339.8 230.6L380.2 239.7L420.5 247.9L460.9 254.3L501.2 259.9L541.6 265.2L582 270.1L622.3 274.7L662.7 278.9L703.1 282.8" stroke="rgb(108, 109, 109)" stroke-opacity="0.7" stroke-width="0.5" fill="none" class="Non__002dfragile_0-border"></path></g></g></g><g style="fill: #777;" class="SourcesFooter"><g style="fill: #777;" class="clickable"><text font-size="12.60" x="15.0" y="581.6"><tspan x="15" y="581.58">Source: Crespo-Cuaresma et al. (2018); OECD (2018), States of Fragility</tspan></text></g><text font-size="12.60" x="775.4" y="581.6"><tspan x="775.402" y="581.58"><a style="fill: #777;" class="cclogo" href="http://creativecommons.org/licenses/by-sa/4.0/deed.en_US" target="_blank">CC BY-SA</a></tspan></text></g></g></svg>
